X: 16544
T: Hallowtree
R: mazurka
M: 3/4
K: Amajor
|:"A"E2AB AG|"D"F2Bc BA|"E"G2A2B2|"/A"cB "/#G,"AG "/F"F=F|"A"E2AB AG|"D"F2Bc BA|"E"GA Bc BG|"A"A6:|
K:Amin
"Am"e2 ce dc|"G"d2 Bd cB|"Ff"c2 Ac BA|"G"B6|"C"e2 ce dc|"Dm"d2 Bd cB|"E7"cB Ac B^G|"Am"A6||
"C"ed ce dc|"G"dc Bd cB|"Am"cB Ac BA|"Em"B6|"C"cE ce dc|"Dm"dF df ed|"E7"cB Ac B^G|"Am"A6||
K:A
|:"A"e2 ec Ae|"D"f2fd Af|"A"e2 ec Ae|"E"dc Bc df|"A"e2 ec Ae|"D"f2fd Af|"A"ec Ad "E7"BG|A6:|

